assets/logos/microsoft-logo.svg

<?xml version="1.0" encoding="UTF-8" standalone="no"?>
<svg
   width="123"
   height="26"
   viewBox="0 0 123 26"
   fill="none"
   version="1.1"
   id="svg5"
   sodipodi:docname="microsoft-logo.svg"
   inkscape:version="1.4.2 (ebf0e940d0, 2025-05-08)"
   xmlns:inkscape="http://www.inkscape.org/namespaces/inkscape"
   xmlns:sodipodi="http://sodipodi.sourceforge.net/DTD/sodipodi-0.dtd"
   xmlns="http://www.w3.org/2000/svg"
   xmlns:svg="http://www.w3.org/2000/svg">
  <sodipodi:namedview
     id="namedview5"
     pagecolor="#ffffff"
     bordercolor="#000000"
     borderopacity="0.25"
     inkscape:showpageshadow="2"
     inkscape:pageopacity="0.0"
     inkscape:pagecheckerboard="0"
     inkscape:deskcolor="#d1d1d1"
     inkscape:zoom="5.1020916"
     inkscape:cx="61.347389"
     inkscape:cy="-2.4499756"
     inkscape:window-width="1920"
     inkscape:window-height="1008"
     inkscape:window-x="0"
     inkscape:window-y="0"
     inkscape:window-maximized="1"
     inkscape:current-layer="svg5" />
  <g
     clip-path="url(#clip0)"
     id="g5"
     transform="matrix(0.98492323,0,0,0.98492323,0.92707072,0.19599806)">
    <path
       d="m 43.5636,14.9753 -0.7271,2.0558 h -0.0606 c -0.1212,-0.4636 -0.3434,-1.169 -0.707,-2.0155 L 38.1706,5.24042 H 34.353 V 20.8203 h 2.5249 v -9.614 c 0,-0.6046 0,-1.28991 -0.0202,-2.13643 C 36.8375,8.64662 36.7971,8.32414 36.7769,8.08228 h 0.0606 C 36.9587,8.68693 37.1,9.13034 37.201,9.41251 L 41.8871,20.78 h 1.7775 L 48.3103,9.31173 c 0.101,-0.26201 0.202,-0.78604 0.303,-1.22945 h 0.0606 c -0.0606,1.14883 -0.101,2.17672 -0.1212,2.80152 v 9.876 h 2.6864 V 5.20011 H 47.563 Z M 53.7841,9.5939 H 56.41 v 11.1659 h -2.6259 z m 1.3332,-4.71627 c -0.4444,0 -0.808,0.16124 -1.111,0.44341 -0.3029,0.28217 -0.4645,0.64496 -0.4645,1.08837 0,0.42325 0.1616,0.78605 0.4645,1.06822 0.303,0.28217 0.6666,0.42325 1.111,0.42325 0.4443,0 0.8281,-0.16124 1.1109,-0.42325 0.303,-0.28217 0.4646,-0.64497 0.4646,-1.06822 0,-0.42326 -0.1616,-0.78605 -0.4646,-1.08837 C 55.9656,5.03887 55.5818,4.87763 55.1173,4.87763 Z m 10.6043,4.6155 C 65.2368,9.39235 64.7318,9.33189 64.2471,9.33189 c -1.1918,0 -2.2825,0.26202 -3.1914,0.78601 -0.909,0.5241 -1.6361,1.2496 -2.1007,2.1566 -0.4848,0.9272 -0.7271,1.9954 -0.7271,3.2248 0,1.0682 0.2423,2.0155 0.7069,2.8822 0.4646,0.8465 1.1109,1.5318 1.9795,1.9954 0.8281,0.4635 1.7977,0.7054 2.8884,0.7054 1.2523,0 2.3228,-0.262 3.1712,-0.7458 l 0.0202,-0.0201 v -2.4186 l -0.101,0.0806 c -0.3838,0.2822 -0.8282,0.524 -1.2725,0.6651 -0.4646,0.1613 -0.8888,0.2419 -1.2523,0.2419 -1.0504,0 -1.8785,-0.3023 -2.4643,-0.9675 -0.6059,-0.6449 -0.9089,-1.5317 -0.9089,-2.6403 0,-1.1488 0.303,-2.0558 0.9291,-2.7209 0.6262,-0.6651 1.4543,-1.0078 2.4643,-1.0078 0.8483,0 1.7168,0.2822 2.5046,0.8466 l 0.101,0.0806 V 9.91639 L 66.9739,9.89623 C 66.6305,9.75515 66.2467,9.5939 65.7216,9.49313 Z m 8.6652,-0.08062 c -0.6464,0 -1.2523,0.20155 -1.7775,0.62479 -0.4444,0.3628 -0.7473,0.8868 -1.0099,1.5116 h -0.0202 v -1.955 h -2.6258 v 11.1659 h 2.6258 v -5.7039 c 0,-0.9674 0.202,-1.7736 0.6463,-2.3581 0.4444,-0.6047 1.01,-0.907 1.6967,-0.907 0.2424,0 0.4848,0.0605 0.7878,0.1008 0.2828,0.0806 0.4847,0.1612 0.6261,0.262 l 0.101,0.0806 V 9.61406 L 75.3765,9.5939 C 75.1947,9.47297 74.8312,9.41251 74.3868,9.41251 Z m 7.1503,-0.06046 c -1.8381,0 -3.3126,0.54418 -4.3427,1.61235 -1.0503,1.0683 -1.5553,2.5396 -1.5553,4.3938 0,1.7334 0.5252,3.1442 1.5351,4.1721 1.0099,1.0078 2.3835,1.5318 4.1003,1.5318 1.7977,0 3.2318,-0.5442 4.262,-1.6325 1.0503,-1.0884 1.5553,-2.5396 1.5553,-4.3334 0,-1.7736 -0.4848,-3.1845 -1.4745,-4.2124 C 84.6679,9.85592 83.2742,9.35205 81.5371,9.35205 Z m 2.1007,8.58605 c -0.4848,0.6248 -1.2523,0.9271 -2.2017,0.9271 -0.9493,0 -1.7169,-0.3023 -2.2622,-0.9674 -0.5454,-0.6248 -0.808,-1.5318 -0.808,-2.6806 0,-1.1892 0.2828,-2.0962 0.808,-2.7411 0.5453,-0.645 1.2927,-0.9675 2.242,-0.9675 0.9292,0 1.6563,0.3024 2.1815,0.9272 0.5252,0.6248 0.8079,1.5317 0.8079,2.7209 -0.0404,1.2093 -0.2625,2.1566 -0.7675,2.7814 z m 9.3116,-3.7085 c -0.8282,-0.3427 -1.3533,-0.6047 -1.5957,-0.8264 -0.202,-0.2015 -0.303,-0.4837 -0.303,-0.8465 0,-0.3023 0.1212,-0.6047 0.4242,-0.8062 0.303,-0.2016 0.6463,-0.3023 1.1513,-0.3023 0.4444,0 0.9089,0.0806 1.3533,0.2015 0.4444,0.1209 0.8484,0.3023 1.1715,0.5442 l 0.101,0.0806 V 9.81561 L 95.1914,9.79546 C 94.8884,9.67453 94.4845,9.5536 93.9997,9.45282 93.5149,9.3722 93.0706,9.33189 92.707,9.33189 c -1.2523,0 -2.2825,0.30233 -3.0904,0.96741 -0.8079,0.6248 -1.1917,1.4713 -1.1917,2.4589 0,0.5241 0.0808,0.9876 0.2626,1.3706 0.1817,0.3829 0.4443,0.7457 0.8079,1.0481 0.3636,0.2821 0.8887,0.6046 1.6159,0.9069 0.606,0.262 1.0705,0.4636 1.3533,0.6248 0.2828,0.1613 0.4646,0.3427 0.606,0.4838 0.101,0.1612 0.1616,0.3627 0.1616,0.6248 0,0.7457 -0.5656,1.1085 -1.7169,1.1085 -0.4444,0 -0.909,-0.0806 -1.4543,-0.262 -0.5454,-0.1814 -1.0504,-0.4434 -1.4745,-0.7458 l -0.101,-0.0806 v 2.5597 l 0.0606,0.0202 c 0.3837,0.1814 0.8483,0.3023 1.4139,0.4434 0.5655,0.1007 1.0705,0.1814 1.5149,0.1814 1.3533,0 2.4642,-0.3024 3.252,-0.9675 0.8079,-0.6449 1.2321,-1.4713 1.2321,-2.5395 0,-0.7457 -0.202,-1.4109 -0.6464,-1.9147 -0.5857,-0.4838 -1.3129,-0.9876 -2.3632,-1.3907 z m 9.9376,-4.87755 c -1.838,0 -3.3125,0.54418 -4.3426,1.61235 -1.0301,1.0683 -1.5553,2.5396 -1.5553,4.3938 0,1.7334 0.5252,3.1442 1.5351,4.1721 1.0099,1.0078 2.3838,1.5318 4.1008,1.5318 1.797,0 3.231,-0.5442 4.261,-1.6325 1.051,-1.0884 1.556,-2.5396 1.556,-4.3334 0,-1.7736 -0.485,-3.1845 -1.475,-4.2124 -0.949,-1.02788 -2.343,-1.53175 -4.08,-1.53175 z m 2.081,8.58605 c -0.485,0.6248 -1.253,0.9271 -2.202,0.9271 -0.97,0 -1.717,-0.3023 -2.262,-0.9674 -0.5457,-0.6248 -0.8083,-1.5318 -0.8083,-2.6806 0,-1.1892 0.2828,-2.0962 0.8083,-2.7411 0.545,-0.645 1.292,-0.9675 2.242,-0.9675 0.909,0 1.656,0.3024 2.181,0.9272 0.525,0.6248 0.808,1.5317 0.808,2.7209 0,1.2093 -0.262,2.1566 -0.767,2.7814 z M 122.48,11.7505 V 9.5939 h -2.646 V 6.28848 l -0.081,0.02015 -2.505,0.74574 -0.06,0.02016 V 9.5939 h -3.959 V 8.18305 c 0,-0.64496 0.161,-1.14883 0.444,-1.47132 0.283,-0.32248 0.707,-0.48372 1.232,-0.48372 0.364,0 0.748,0.08062 1.172,0.26202 l 0.101,0.06046 V 4.27298 l -0.061,-0.02016 c -0.363,-0.12093 -0.848,-0.20155 -1.474,-0.20155 -0.788,0 -1.475,0.18139 -2.101,0.48372 -0.626,0.34264 -1.091,0.8062 -1.434,1.43101 -0.343,0.60465 -0.525,1.28992 -0.525,2.07597 V 9.5939 h -1.838 v 2.1364 h 1.838 v 9.0295 h 2.646 v -9.0093 h 3.959 v 5.7442 c 0,2.3581 1.111,3.5473 3.333,3.5473 0.363,0 0.747,-0.0605 1.11,-0.121 0.384,-0.0806 0.667,-0.1814 0.829,-0.262 l 0.02,-0.0201 v -2.1566 l -0.101,0.0806 c -0.162,0.1008 -0.303,0.1814 -0.546,0.2419 -0.202,0.0604 -0.383,0.0806 -0.525,0.0806 -0.525,0 -0.888,-0.121 -1.151,-0.4233 -0.242,-0.2821 -0.364,-0.7457 -0.364,-1.431 v -5.2806 z"
       fill="#737373"
       id="path1" />
    <path
       d="M 0.5,0 H 12.8818 V 12.355 H 0.5 Z"
       fill="#f25022"
       id="path2" />
    <path
       d="M 14.1743,0 H 26.5561 V 12.355 H 14.1743 Z"
       fill="#7fba00"
       id="path3" />
    <path
       d="M 0.5,13.645 H 12.8818 V 26.0001 H 0.5 Z"
       fill="#00a4ef"
       id="path4" />
    <path
       d="M 14.1743,13.645 H 26.5561 V 26.0001 H 14.1743 Z"
       fill="#ffb900"
       id="path5" />
  </g>
  <defs
     id="defs5">
    <clipPath
       id="clip0">
      <rect
         width="123"
         height="26"
         fill="white"
         id="rect5" />
    </clipPath>
  </defs>
</svg>

<svg width="123" height="26" viewBox="0 0 123 26" fill="none" xmlns="http://www.w3.org/2000/svg">
<g clip-path="url(#clip0)">
<path d="M43.5636 14.9753L42.8365 17.0311H42.7759C42.6547 16.5675 42.4325 15.8621 42.0689 15.0156L38.1706 5.24042H34.353V20.8203H36.8779V11.2063C36.8779 10.6017 36.8779 9.91639 36.8577 9.06987C36.8375 8.64662 36.7971 8.32414 36.7769 8.08228H36.8375C36.9587 8.68693 37.1 9.13034 37.201 9.41251L41.8871 20.78H43.6646L48.3103 9.31173C48.4113 9.04972 48.5123 8.52569 48.6133 8.08228H48.6739C48.6133 9.23111 48.5729 10.259 48.5527 10.8838V20.7598H51.2391V5.20011H47.563L43.5636 14.9753ZM53.7841 9.5939H56.41V20.7598H53.7841V9.5939ZM55.1173 4.87763C54.6729 4.87763 54.3093 5.03887 54.0063 5.32104C53.7034 5.60321 53.5418 5.966 53.5418 6.40941C53.5418 6.83266 53.7034 7.19546 54.0063 7.47763C54.3093 7.7598 54.6729 7.90088 55.1173 7.90088C55.5616 7.90088 55.9454 7.73964 56.2282 7.47763C56.5312 7.19546 56.6928 6.83266 56.6928 6.40941C56.6928 5.98615 56.5312 5.62336 56.2282 5.32104C55.9656 5.03887 55.5818 4.87763 55.1173 4.87763ZM65.7216 9.49313C65.2368 9.39235 64.7318 9.33189 64.2471 9.33189C63.0553 9.33189 61.9646 9.59391 61.0557 10.1179C60.1467 10.642 59.4196 11.3675 58.955 12.2745C58.4702 13.2017 58.2279 14.2699 58.2279 15.4993C58.2279 16.5675 58.4702 17.5148 58.9348 18.3815C59.3994 19.228 60.0457 19.9133 60.9143 20.3769C61.7424 20.8404 62.712 21.0823 63.8027 21.0823C65.055 21.0823 66.1255 20.8203 66.9739 20.3365L66.9941 20.3164V17.8978L66.8931 17.9784C66.5093 18.2606 66.0649 18.5024 65.6206 18.6435C65.156 18.8048 64.7318 18.8854 64.3683 18.8854C63.3179 18.8854 62.4898 18.5831 61.904 17.9179C61.2981 17.273 60.9951 16.3862 60.9951 15.2776C60.9951 14.1288 61.2981 13.2218 61.9242 12.5567C62.5504 11.8916 63.3785 11.5489 64.3885 11.5489C65.2368 11.5489 66.1053 11.8311 66.8931 12.3955L66.9941 12.4761V9.91639L66.9739 9.89623C66.6305 9.75515 66.2467 9.5939 65.7216 9.49313ZM74.3868 9.41251C73.7404 9.41251 73.1345 9.61406 72.6093 10.0373C72.1649 10.4001 71.862 10.9241 71.5994 11.5489H71.5792V9.5939H68.9534V20.7598H71.5792V15.0559C71.5792 14.0885 71.7812 13.2823 72.2255 12.6978C72.6699 12.0931 73.2355 11.7908 73.9222 11.7908C74.1646 11.7908 74.407 11.8513 74.71 11.8916C74.9928 11.9722 75.1947 12.0528 75.3361 12.1536L75.4371 12.2342V9.61406L75.3765 9.5939C75.1947 9.47297 74.8312 9.41251 74.3868 9.41251ZM81.5371 9.35205C79.699 9.35205 78.2245 9.89623 77.1944 10.9644C76.1441 12.0327 75.6391 13.504 75.6391 15.3582C75.6391 17.0916 76.1643 18.5024 77.1742 19.5303C78.1841 20.5381 79.5577 21.0621 81.2745 21.0621C83.0722 21.0621 84.5063 20.5179 85.5365 19.4296C86.5868 18.3412 87.0918 16.89 87.0918 15.0962C87.0918 13.3226 86.607 11.9117 85.6173 10.8838C84.6679 9.85592 83.2742 9.35205 81.5371 9.35205ZM83.6378 17.9381C83.153 18.5629 82.3855 18.8652 81.4361 18.8652C80.4868 18.8652 79.7192 18.5629 79.1739 17.8978C78.6285 17.273 78.3659 16.366 78.3659 15.2172C78.3659 14.028 78.6487 13.121 79.1739 12.4761C79.7192 11.8311 80.4666 11.5086 81.4159 11.5086C82.3451 11.5086 83.0722 11.811 83.5974 12.4358C84.1226 13.0606 84.4053 13.9675 84.4053 15.1567C84.3649 16.366 84.1428 17.3133 83.6378 17.9381ZM92.9494 14.2296C92.1212 13.8869 91.5961 13.6249 91.3537 13.4032C91.1517 13.2017 91.0507 12.9195 91.0507 12.5567C91.0507 12.2544 91.1719 11.952 91.4749 11.7505C91.7779 11.5489 92.1212 11.4482 92.6262 11.4482C93.0706 11.4482 93.5351 11.5288 93.9795 11.6497C94.4239 11.7706 94.8279 11.952 95.151 12.1939L95.252 12.2745V9.81561L95.1914 9.79546C94.8884 9.67453 94.4845 9.5536 93.9997 9.45282C93.5149 9.3722 93.0706 9.33189 92.707 9.33189C91.4547 9.33189 90.4245 9.63422 89.6166 10.2993C88.8087 10.9241 88.4249 11.7706 88.4249 12.7582C88.4249 13.2823 88.5057 13.7458 88.6875 14.1288C88.8692 14.5117 89.1318 14.8745 89.4954 15.1769C89.859 15.459 90.3841 15.7815 91.1113 16.0838C91.7173 16.3458 92.1818 16.5474 92.4646 16.7086C92.7474 16.8699 92.9292 17.0513 93.0706 17.1924C93.1716 17.3536 93.2322 17.5551 93.2322 17.8172C93.2322 18.5629 92.6666 18.9257 91.5153 18.9257C91.0709 18.9257 90.6063 18.8451 90.061 18.6637C89.5156 18.4823 89.0106 18.2203 88.5865 17.9179L88.4855 17.8373V20.397L88.5461 20.4172C88.9298 20.5986 89.3944 20.7195 89.96 20.8606C90.5255 20.9613 91.0305 21.042 91.4749 21.042C92.8282 21.042 93.9391 20.7396 94.7269 20.0745C95.5348 19.4296 95.959 18.6032 95.959 17.535C95.959 16.7893 95.757 16.1241 95.3126 15.6203C94.7269 15.1365 93.9997 14.6327 92.9494 14.2296ZM102.887 9.35205C101.049 9.35205 99.5745 9.89623 98.5444 10.9644C97.5143 12.0327 96.9891 13.504 96.9891 15.3582C96.9891 17.0916 97.5143 18.5024 98.5242 19.5303C99.5341 20.5381 100.908 21.0621 102.625 21.0621C104.422 21.0621 105.856 20.5179 106.886 19.4296C107.937 18.3412 108.442 16.89 108.442 15.0962C108.442 13.3226 107.957 11.9117 106.967 10.8838C106.018 9.85592 104.624 9.35205 102.887 9.35205ZM104.968 17.9381C104.483 18.5629 103.715 18.8652 102.766 18.8652C101.796 18.8652 101.049 18.5629 100.504 17.8978C99.9583 17.273 99.6957 16.366 99.6957 15.2172C99.6957 14.028 99.9785 13.121 100.504 12.4761C101.049 11.8311 101.796 11.5086 102.746 11.5086C103.655 11.5086 104.402 11.811 104.927 12.4358C105.452 13.0606 105.735 13.9675 105.735 15.1567C105.735 16.366 105.473 17.3133 104.968 17.9381ZM122.48 11.7505V9.5939H119.834V6.28848L119.753 6.30863L117.248 7.05437L117.188 7.07453V9.5939H113.229V8.18305C113.229 7.53809 113.39 7.03422 113.673 6.71173C113.956 6.38925 114.38 6.22801 114.905 6.22801C115.269 6.22801 115.653 6.30863 116.077 6.49003L116.178 6.55049V4.27298L116.117 4.25282C115.754 4.13189 115.269 4.05127 114.643 4.05127C113.855 4.05127 113.168 4.23266 112.542 4.53499C111.916 4.87763 111.451 5.34119 111.108 5.966C110.765 6.57065 110.583 7.25592 110.583 8.04197V9.5939H108.745V11.7303H110.583V20.7598H113.229V11.7505H117.188V17.4947C117.188 19.8528 118.299 21.042 120.521 21.042C120.884 21.042 121.268 20.9815 121.631 20.921C122.015 20.8404 122.298 20.7396 122.46 20.659L122.48 20.6389V18.4823L122.379 18.5629C122.217 18.6637 122.076 18.7443 121.833 18.8048C121.631 18.8652 121.45 18.8854 121.308 18.8854C120.783 18.8854 120.42 18.7644 120.157 18.4621C119.915 18.18 119.793 17.7164 119.793 17.0311V11.7505H122.48Z" fill="#737373"/>
<path d="M0.5 0H12.8818V12.355H0.5V0Z" fill="#F25022"/>
<path d="M14.1743 0H26.5561V12.355H14.1743V0Z" fill="#7FBA00"/>
<path d="M0.5 13.645H12.8818V26.0001H0.5V13.645Z" fill="#00A4EF"/>
<path d="M14.1743 13.645H26.5561V26.0001H14.1743V13.645Z" fill="#FFB900"/>
</g>
<defs>
<clipPath id="clip0">
<rect width="123" height="26" fill="white"/>
</clipPath>
</defs>
</svg>
